assets/icons/icon_search.svg

<?xml version="1.0" encoding="UTF-8"?>
<svg xmlns="http://www.w3.org/2000/svg" viewBox="0 0 48 48">
  <defs>
    <style>
      .cls-1 {
        fill: none;
        opacity: .2;
      }
    </style>
  </defs>
  <g id="guid">
    <g>
      <rect class="cls-1" width="48" height="48"/>
      <rect class="cls-1" x="4" y="4" width="40" height="40"/>
    </g>
  </g>
  <g id="Layer_2" data-name="Layer 2">
    <path d="M42.06,39.94l-8.74-8.74c2.3-2.77,3.68-6.32,3.68-10.2,0-8.84-7.16-16-16-16S5,12.16,5,21s7.16,16,16,16c3.88,0,7.43-1.38,10.2-3.68l8.74,8.74c.29.29.68.44,1.06.44s.77-.15,1.06-.44c.59-.59.59-1.54,0-2.12ZM21,34c-7.17,0-13-5.83-13-13s5.83-13,13-13,13,5.83,13,13-5.83,13-13,13Z"/>
  </g>
</svg>

<svg width="48" height="48" viewBox="0 0 48 48" fill="none" xmlns="http://www.w3.org/2000/svg">
<g clip-path="url(#clip0_2188_3134)">
<path d="M42.06 39.94L33.32 31.2C35.62 28.43 37 24.88 37 21C37 12.16 29.84 5 21 5C12.16 5 5 12.16 5 21C5 29.84 12.16 37 21 37C24.88 37 28.43 35.62 31.2 33.32L39.94 42.06C40.23 42.35 40.62 42.5 41 42.5C41.38 42.5 41.77 42.35 42.06 42.06C42.65 41.47 42.65 40.52 42.06 39.94ZM21 34C13.83 34 8 28.17 8 21C8 13.83 13.83 8 21 8C28.17 8 34 13.83 34 21C34 28.17 28.17 34 21 34Z" fill="black"/>
</g>
<defs>
<clipPath id="clip0_2188_3134">
<rect width="48" height="48" fill="white"/>
</clipPath>
</defs>
</svg>
